X:1
T:Title
%%score 1 ( 2 3 )
L:1/8
Q:1/4=70
M:3/4
K:F
V:1 treble nm="Strings 1, Treble"
V:2 bass nm="Strings 1, Bass"
V:3 bass 
V:1
 z2 z2 z C | A>A A3 F | B>A A2 F2 | G>G G4 | A>A A3 C | A>A A3 F | B>A A2 F2 | G>E C4 | %8
 A>[Q:1/4=49]G F4[Q:1/4=68][Q:1/4=65][Q:1/4=63][Q:1/4=61][Q:1/4=59][Q:1/4=58][Q:1/4=56][Q:1/4=54][Q:1/4=53][Q:1/4=51][Q:1/4=50][Q:1/4=48][Q:1/4=47][Q:1/4=45] | %9
[Q:1/4=70] [EG]>[EG] [EG]4 | [FA]>[FA] [FA]3 [FA] | [EG]<[EG] [Fd]2 [F=B]2 | [Ec]4 z C | %13
 [FA]>[FA] [FA]3 F | [FB]>[FA] [FA]2 [CF]2 | [CG]>[CE] C4 | %16
 [FA]>[Q:1/4=49][CG] [CF]4[Q:1/4=68][Q:1/4=65][Q:1/4=63][Q:1/4=61][Q:1/4=59][Q:1/4=58][Q:1/4=56][Q:1/4=54][Q:1/4=53][Q:1/4=51][Q:1/4=50][Q:1/4=48][Q:1/4=47][Q:1/4=45] |] %17
V:2
 z2 z2 z A, | C>C C3 A, | D>C C2 A,2 | B,>B, B,4 | C>C C3 A, | C>C C3 A, | D>C C2 A,2 | B,>B, B,4 | %8
w: 1.~The~|nine ty nine~ are~|safe ly~ ly ing~|In~ the~ fold,~|in~ the~ fold;~ Go~|search~ the~ sheep~ that's~|lost~ and~ dy ing,~|In~ the~ cold,~|
 C>B, [F,,F,A,]4 | [C,C]>[C,C] [C,C]4 | [F,C]>[F,C] [F,C]3 [F,C] | [G,C]<[G,C] [G,=B,]2 G,2 | %12
w: in~ the~ cold.~||||
 [C,G,]4 z [F,A,] | [F,C]>[F,C] [F,C]3 [F,A,] | [F,D]>[F,C] [F,C]2 [F,A,]2 | %15
w: |||
 [C,E,]>[C,G,] [C,B,]4 | [C,C]>[C,B,] [F,,F,A,]4 |] %17
w: ||
V:3
 x6 | [F,,F,]6 | [F,,F,]4 z2 | [C,,C,]6 | [F,,F,]6 | [F,,F,]6 | [F,,F,]4 z2 | [C,,C,]6 | %8
 [C,,C,]2 z2 z2 | x6 | x6 | x6 | x6 | x6 | x6 | x6 | x6 |] %17

